public/static/img/common/score1.svg

<svg width="30" height="30" viewBox="0 0 30 30" fill="none" xmlns="http://www.w3.org/2000/svg">
<path id="Vector" d="M1.18155 5.51348C1.18155 5.51354 1.18157 5.5136 1.1816 5.51365L1.44239 5.91149C1.64453 6.21986 1.43484 6.63111 1.06654 6.64862C0.803682 6.66112 0.572242 6.45176 0.654066 6.20165C0.675131 6.13726 0.701232 6.07438 0.732239 6.0136C0.835799 5.81062 0.990504 5.63815 1.18108 5.51322C1.18128 5.51309 1.18155 5.51324 1.18155 5.51348ZM15.003 2.24165L14.9506 0.932623H14.9355L14.9028 0.934589L14.7829 0.94114C14.6807 0.947692 14.5339 0.956865 14.3498 0.971934C13.9803 1.00273 13.4555 1.05448 12.8219 1.14228C11.5594 1.3159 9.84289 1.633 8.05166 2.20693C6.24732 2.78544 4.53078 3.61423 3.28071 4.28644C2.62298 4.64059 1.97666 5.01554 1.34272 5.41071L1.22676 5.48409L1.19531 5.5044L1.18637 5.51078C1.18621 5.51089 1.18605 5.51099 1.18588 5.51108C1.18392 5.51206 1.18326 5.51452 1.18445 5.51635L1.89961 6.60967L0.599095 6.6715C0.594332 6.67173 0.590587 6.67566 0.590587 6.68043L0.592551 6.70139C0.592551 6.71908 0.594516 6.74463 0.596482 6.77739C0.600413 6.84291 0.605656 6.93791 0.614173 7.05912C0.718501 8.53887 0.88616 10.0135 1.11669 11.4789C1.53272 14.1101 2.28813 17.4671 3.67512 19.8808C5.14795 22.4425 7.87214 24.8778 10.1056 26.6166C11.3524 27.5852 12.6425 28.4968 13.9718 29.3486C14.0792 29.4171 14.1871 29.4848 14.2954 29.5517L14.3151 29.5635L14.3195 29.5667C14.3196 29.5668 14.3197 29.5669 14.3199 29.5669C14.3212 29.5676 14.3229 29.5671 14.3237 29.5658L15.003 28.4484L14.694 28.9563C14.4884 29.2941 14.6074 29.7588 15.0028 29.7588C15.3982 29.7587 15.5172 29.2942 15.3118 28.9564L15.003 28.4484L15.682 29.566C15.6829 29.5675 15.6849 29.5679 15.6863 29.5668L15.6916 29.5635L15.7106 29.5517C15.8193 29.4854 15.9272 29.4177 16.0342 29.3486C17.3635 28.4967 18.6536 27.5851 19.9004 26.6166C22.1345 24.8778 24.8581 22.4425 26.3309 19.8808C27.7179 17.4678 28.4733 14.1101 28.89 11.4795C29.1204 10.0139 29.2878 8.53909 29.3918 7.05912C29.4001 6.93993 29.4075 6.82068 29.4141 6.70139L29.4148 6.68043C29.4148 6.67602 29.4113 6.6724 29.4069 6.67219L28.1064 6.60967L28.7359 6.6396C29.1112 6.65744 29.4445 6.34895 29.2738 6.01426C29.103 5.67952 28.6575 5.76828 28.4515 6.08256L28.1064 6.60901L28.8241 5.51275C28.8243 5.51254 28.8241 5.51226 28.8239 5.51226C28.8238 5.51226 28.8238 5.51225 28.8237 5.51223L28.8229 5.51178C28.8226 5.51166 28.8224 5.51152 28.8222 5.51136L28.8199 5.50964L28.8107 5.50374L28.7793 5.48343C28.6007 5.36841 28.4203 5.25636 28.2381 5.14733C27.7408 4.84773 27.2361 4.56046 26.7246 4.28578C25.4752 3.61358 23.7587 2.78479 21.955 2.20627C20.1631 1.63234 18.4466 1.31524 17.1841 1.14162C16.6764 1.07099 16.1669 1.01419 15.6562 0.971278C15.4723 0.956153 15.2882 0.943703 15.1039 0.933934L15.0705 0.932623L15.06 0.931968C15.0574 0.931968 15.0553 0.93399 15.0552 0.936549L15.003 2.24165ZM15.003 2.24165L14.9506 0.932623C15.0081 0.930455 15.0529 0.979267 15.0506 1.03674L15.003 2.24165ZM15.003 2.24165C15.003 2.24165 11.8484 2.36613 8.45131 3.45503C5.05426 4.54326 1.89961 6.60967 1.89961 6.60967C1.89961 6.60967 2.29141 14.8432 4.81119 19.2276C7.48625 23.8806 15.003 28.4484 15.003 28.4484C15.003 28.4484 22.5198 23.8806 25.1948 19.2276C27.7153 14.8432 28.1064 6.60901 28.1064 6.60901C28.1064 6.60901 24.9518 4.54326 21.5547 3.45503C18.1576 2.36613 15.003 2.24165 15.003 2.24165Z" fill="url(#paint0_linear_15933_9636)"/>
<defs>
<linearGradient id="paint0_linear_15933_9636" x1="15.003" y1="0.931641" x2="15.003" y2="29.7588" gradientUnits="userSpaceOnUse">
<stop stop-color="#42A965" stop-opacity="0.588235"/>
<stop offset="1" stop-color="#00A609"/>
</linearGradient>
</defs>
</svg>

<svg width="30" height="30" fill="none" xmlns="http://www.w3.org/2000/svg"><path d="m1.182 5.513.26.398a.476.476 0 0 1-.375.738c-.263.012-.495-.197-.413-.447a1.31 1.31 0 0 1 .528-.689Zm13.821-3.271-.052-1.31h-.016l-.032.003-.12.006c-.102.007-.25.016-.433.03-.37.032-.894.083-1.528.171-1.263.174-2.98.491-4.77 1.065-1.805.578-3.521 1.407-4.771 2.08-.658.354-1.304.729-1.938 1.124l-.116.073-.032.02-.009.007a.004.004 0 0 0-.002.005L1.9 6.61l-1.3.06a.009.009 0 0 0-.01.01l.003.02.003.076.018.282a52.01 52.01 0 0 0 .503 4.42c.416 2.631 1.171 5.988 2.558 8.402 1.473 2.561 4.197 4.997 6.43 6.736a52.268 52.268 0 0 0 4.19 2.935l.02.012.005.003.004-.001.679-1.118-.309.508c-.206.338-.087.803.309.803.395 0 .514-.465.309-.803l-.309-.508.679 1.118c0 .002.003.002.004 0l.006-.002.019-.012a52.328 52.328 0 0 0 4.19-2.935c2.233-1.74 4.957-4.175 6.43-6.736 1.387-2.413 2.142-5.77 2.559-8.402a51.883 51.883 0 0 0 .524-4.778v-.02a.008.008 0 0 0-.007-.009l-1.3-.062.629.03c.375.017.709-.291.538-.626-.171-.334-.617-.246-.823.069l-.345.526.718-1.096-.001-.001-.003-.002-.01-.006-.03-.02a19.362 19.362 0 0 0-.542-.337c-.497-.3-1.002-.587-1.513-.861-1.25-.672-2.966-1.501-4.77-2.08a28.726 28.726 0 0 0-4.77-1.064 28.263 28.263 0 0 0-1.529-.17 19.02 19.02 0 0 0-.552-.038h-.034l-.01-.001a.005.005 0 0 0-.005.005l-.052 1.305Zm0 0-.052-1.31a.098.098 0 0 1 .1.105l-.048 1.205Zm0 0s-3.155.124-6.552 1.213C5.054 4.543 1.9 6.61 1.9 6.61s.391 8.233 2.911 12.618c2.675 4.653 10.192 9.22 10.192 9.22s7.517-4.567 10.192-9.22c2.52-4.385 2.911-12.619 2.911-12.619s-3.154-2.066-6.551-3.154c-3.397-1.089-6.552-1.213-6.552-1.213Z" fill="url(#a)"/><defs><linearGradient id="a" x1="15.003" y1=".932" x2="15.003" y2="29.759" gradientUnits="userSpaceOnUse"><stop stop-color="#42A965" stop-opacity=".588"/><stop offset="1" stop-color="#00A609"/></linearGradient></defs></svg>
